svgs/sharp-duotone-regular/road-spikes.svg

<svg xmlns="http://www.w3.org/2000/svg" viewBox="0 0 640 512"><!--! Font Awesome Pro 7.1.0 by @fontawesome - https://fontawesome.com License - https://fontawesome.com/license (Commercial License) Copyright 2025 Fonticons, Inc. --><path opacity=".4" fill="currentColor" d="M80 212.2l57.4 91.8-57.4 0 0-91.8zm128 0l57.4 91.8-57.4 0 0-91.8zm128 0l57.4 91.8-57.4 0 0-91.8zm128 0l57.4 91.8-57.4 0 0-91.8z"/><path fill="currentColor" d="M80 212.2l0 91.8 57.4 0-57.4-91.8zM64 96l16 25.6 80 128 0-153.6 32 0 16 25.6 80 128 0-153.6 32 0 16 25.6 80 128 0-153.6 32 0 16 25.6c90 144 138 220.8 144 230.4l-576 0 0-256 32 0zM0 400l640 0 0 48-640 0 0-48zm208-96l57.4 0-57.4-91.8 0 91.8zm128-91.8l0 91.8 57.4 0-57.4-91.8zM464 304l57.4 0-57.4-91.8 0 91.8z"/></svg>

<svg xmlns="http://www.w3.org/2000/svg" viewBox="0 0 640 512"><!--! Font Awesome Pro 6.7.2 by @fontawesome - https://fontawesome.com License - https://fontawesome.com/license (Commercial License) Copyright 2024 Fonticons, Inc. --><defs><style>.fa-secondary{opacity:.4}</style></defs><path class="fa-secondary" d="M80 212.2L137.4 304 80 304l0-91.8zm128 0L265.4 304 208 304l0-91.8zm128 0L393.4 304 336 304l0-91.8zm128 0L521.4 304 464 304l0-91.8z"/><path class="fa-primary" d="M80 212.2L80 304l57.4 0L80 212.2zM64 96l16 25.6 80 128L160 144l0-8.6 0-19.4 0-20 32 0 16 25.6 80 128L288 144l0-8.6 0-19.4 0-20 32 0 16 25.6 80 128L416 144l0-8.6 0-19.4 0-20 32 0 16 25.6L578 304l30 48-56.6 0L480 352l-16 0-40.6 0-7.4 0-64 0-16 0-40.6 0-7.4 0-64 0-16 0-40.6 0-7.4 0-80 0-48 0 0-48 0-160 0-8.6L32 116l0-20 32 0zM0 400l24 0 592 0 24 0 0 48-24 0L24 448 0 448l0-48zm208-96l57.4 0L208 212.2l0 91.8zm128-91.8l0 91.8 57.4 0L336 212.2zM464 304l57.4 0L464 212.2l0 91.8z"/></svg>
